my_projects/verstka/middle/stepik_devcloud_solution/img/services/cloud_green.svg

<svg width="39" height="30.56" fill="none" xmlns="http://www.w3.org/2000/svg"><path d="M10.73 3.72C13.17 1.33 16.28.01 19.5 0c6.55 0 11.99 5.55 12.59 12.72 3.88.62 6.91 4.32 6.91 8.87 0 4.99-3.66 8.96-8.08 8.96H9.21C4.16 30.55 0 26.02 0 20.33c0-4.9 3.08-8.96 7.17-9.99.34-2.39 1.7-4.78 3.56-6.62zm1.6 2.11c-1.85 1.81-2.81 4-2.81 5.71v1.24l-1.09.14c-3.4.42-6 3.61-6 7.41 0 4.07 3 7.45 6.78 7.45h21.71c3.15 0 5.64-2.81 5.64-6.19 0-3.38-2.49-6.19-5.64-6.19H29.7v-1.39c0-6.17-4.53-11.24-10.2-11.24-2.64.02-5.18 1.1-7.17 3.06z" fill="#29A28C"/></svg>

<svg width="39.000000" height="30.559814" viewBox="0 0 39 30.5598" fill="none" xmlns="http://www.w3.org/2000/svg" xmlns:xlink="http://www.w3.org/1999/xlink">
	<desc>
			Created with Pixso.
	</desc>
	<defs/>
	<path id="Vector" d="M10.73 3.72C13.17 1.33 16.28 0.01 19.5 0C26.05 0 31.49 5.55 32.09 12.72C35.97 13.34 39 17.04 39 21.59C39 26.58 35.34 30.55 30.92 30.55L9.21 30.55C4.16 30.55 0 26.02 0 20.33C0 15.43 3.08 11.37 7.17 10.34C7.51 7.95 8.87 5.56 10.73 3.72ZM12.33 5.83C10.48 7.64 9.52 9.83 9.52 11.54L9.52 12.78L8.43 12.92C5.03 13.34 2.43 16.53 2.43 20.33C2.43 24.4 5.43 27.78 9.21 27.78L30.92 27.78C34.07 27.78 36.56 24.97 36.56 21.59C36.56 18.21 34.07 15.4 30.92 15.4L29.7 15.4L29.7 14.01C29.7 7.84 25.17 2.77 19.5 2.77C16.86 2.79 14.32 3.87 12.33 5.83L12.33 5.83Z" fill="#29A28C" fill-opacity="1.000000" fill-rule="nonzero"/>
</svg>
